svgs/sharp-regular/plate-wheat.svg

<svg xmlns="http://www.w3.org/2000/svg" viewBox="0 0 512 512"><!--! Font Awesome Pro 6.6.0 by @fontawesome - https://fontawesome.com License - https://fontawesome.com/license (Commercial License) Copyright 2024 Fonticons, Inc. --><path d="M400 32c44.2 0 80 35.8 80 80l0 32-16 0c-44.2 0-80-35.8-80-80l0-32 16 0zM56 64l48 0 24 0 0 48-24 0-48 0-24 0 0-48 24 0zM24 136l112 0 24 0 0 48-24 0L24 184 0 184l0-48 24 0zm8 72l24 0 48 0 24 0 0 48-24 0-48 0-24 0 0-48zM272 32l16 0c44.2 0 80 35.8 80 80l0 32-16 0c-44.2 0-80-35.8-80-80l0-32zm-96 0c44.2 0 80 35.8 80 80l0 32-16 0c-44.2 0-80-35.8-80-80l0-32 16 0zM480 176l0 32c0 44.2-35.8 80-80 80l-16 0 0-32c0-44.2 35.8-80 80-80l16 0zm-128 0l16 0 0 32c0 44.2-35.8 80-80 80l-16 0 0-32c0-44.2 35.8-80 80-80zm-96 0l0 32c0 44.2-35.8 80-80 80l-16 0 0-32c0-44.2 35.8-80 80-80l16 0zM128 432l256 0 0-25.7 30-12.1c13.6-5.5 25.4-14.6 34-26.2L64 368c8.7 11.6 20.4 20.7 34 26.2l30 12.1 0 25.7zm-48 6.7c-32.1-13-57.7-38.6-70.7-70.7C3.3 353.2 0 337 0 320l48 0 416 0 48 0c0 17-3.3 33.2-9.3 48c-13 32.1-38.6 57.7-70.7 70.7l0 41.3-48 0-256 0-48 0 0-41.3z"/></svg>

<svg xmlns="http://www.w3.org/2000/svg" viewBox="0 0 512 512"><!--! Font Awesome Pro 6.4.0 by @fontawesome - https://fontawesome.com License - https://fontawesome.com/license (Commercial License) Copyright 2023 Fonticons, Inc. --><path d="M400 32c44.2 0 80 35.8 80 80v32H464c-44.2 0-80-35.8-80-80V32h16zM56 64h48 24v48H104 56 32V64H56zM24 136H136h24v48H136 24 0V136H24zm8 72H56h48 24v48H104 56 32V208zM272 32h16c44.2 0 80 35.8 80 80v32H352c-44.2 0-80-35.8-80-80V32zm-96 0c44.2 0 80 35.8 80 80v32H240c-44.2 0-80-35.8-80-80V32h16zM480 176v32c0 44.2-35.8 80-80 80H384V256c0-44.2 35.8-80 80-80h16zm-128 0h16v32c0 44.2-35.8 80-80 80H272V256c0-44.2 35.8-80 80-80zm-96 0v32c0 44.2-35.8 80-80 80H160V256c0-44.2 35.8-80 80-80h16zM128 432H384V406.3l30-12.1c13.6-5.5 25.4-14.6 34-26.2H64c8.7 11.6 20.4 20.7 34 26.2l30 12.1V432zm-48 6.7c-32.1-13-57.7-38.6-70.7-70.7C3.3 353.2 0 337 0 320H48 464h48c0 17-3.3 33.2-9.3 48c-13 32.1-38.6 57.7-70.7 70.7V480H384 128 80V438.7z"/></svg>
